!!!OTL: Der Botenbube
!!!ARE: Europa, Mitteleuropa, Deutschland
!!!SCT: A0314
!!!YEM: Copyright 1995, estate of Helmut Schaffrath.
**kern
*ICvox
*Ivox
*M4/2
*k[f#]
*G:
{2g
2g
2g
2d
=1
4g
4a
2g
1f#}
=2
{2a
2b-
2cc
2b-
=3
2a
2a
1g}
=4
{2g
2g
2g
2d
=5
4g
4a
2g
1f#}
=6
{2a
2b-
2cc
2b-
=7
2a
2a
1g}
=8
{2a
2a
2a
2g
=9
2a
2b-
1cc}
=10
{2a
2a
2a
2g
=11
2a
2b-
1cc}
=12
{1dd
2cc
2b-
=13
1a
1g
=14
4fn
4g
2fn
2g
2fn
=15
1e
2d}
{4dd
4d
=16
4b-
4cc
2dd
2cc
2b-
=17
2a
2a
1g}
==
!!!AGN: Romanze, Ballade, Lied
!! Hainhofer, Lautenbuch II. 1603. Bl. 28.
!!!ONB: ESAC (Essen Associative Code) Database: ALTDEU
!!!AMT: simple quadruple
!!!AIN: vox
!!!EED: Helmut Schaffrath
!!!EEV: 1.0
*-
